Yosa-Max-Dark/places/16x16/folder-documents-symbolic.svg

<?xml version="1.0" encoding="UTF-8"?>
<svg id="svg11" version="1.1" viewBox="0 0 16 16" xmlns="http://www.w3.org/2000/svg">
 <title id="title2">folder-documents-symbolic</title>
 <desc id="desc4">Created with Sketch.</desc>
 <path id="rect825" d="m2 3v12h10v-12h-10zm2 3h6v1h-6v-1zm0 2h6v1h-6v-1zm0 2h6v1h-6v-1z" style="fill:#dfdfdf"/>
 <path id="path849" d="m4.0000506 0.99990082v0.99999998h8.9999974v11h1v-12z" style="fill:#dfdfdf"/>
</svg>

<?xml version="1.0" encoding="UTF-8" standalone="no"?>
<svg
   xmlns:dc="http://purl.org/dc/elements/1.1/"
   xmlns:cc="http://creativecommons.org/ns#"
   xmlns:rdf="http://www.w3.org/1999/02/22-rdf-syntax-ns#"
   xmlns:svg="http://www.w3.org/2000/svg"
   xmlns="http://www.w3.org/2000/svg"
   xmlns:sodipodi="http://sodipodi.sourceforge.net/DTD/sodipodi-0.dtd"
   xmlns:inkscape="http://www.inkscape.org/namespaces/inkscape"
   width="16px"
   height="16px"
   viewBox="0 0 16 16"
   version="1.1"
   id="svg11"
   sodipodi:docname="folder-documents.svg"
   inkscape:version="0.92.4 (unknown)">
  <metadata
     id="metadata15">
    <rdf:RDF>
      <cc:Work
         rdf:about="">
        <dc:format>image/svg+xml</dc:format>
        <dc:type
           rdf:resource="http://purl.org/dc/dcmitype/StillImage" />
      </cc:Work>
    </rdf:RDF>
  </metadata>
  <sodipodi:namedview
     pagecolor="#ffffff"
     bordercolor="#666666"
     borderopacity="1"
     objecttolerance="10"
     gridtolerance="10"
     guidetolerance="10"
     inkscape:pageopacity="0"
     inkscape:pageshadow="2"
     inkscape:window-width="1366"
     inkscape:window-height="709"
     id="namedview13"
     showgrid="false"
     inkscape:zoom="31.8125"
     inkscape:cx="8"
     inkscape:cy="8"
     inkscape:window-x="0"
     inkscape:window-y="0"
     inkscape:window-maximized="1"
     inkscape:current-layer="svg11" />
  <!-- Generator: Sketch 42 (36781) - http://www.bohemiancoding.com/sketch -->
  <title
     id="title2">folder-documents-symbolic</title>
  <desc
     id="desc4">Created with Sketch.</desc>
  <defs
     id="defs6" />
  <path
     style="opacity:1;vector-effect:none;fill:#dfdfdf;fill-opacity:1;stroke:none;stroke-width:3.25773025;stroke-linecap:butt;stroke-linejoin:miter;stroke-miterlimit:4;stroke-dasharray:none;stroke-dashoffset:0;stroke-opacity:1"
     d="M 2 3 L 2 15 L 12 15 L 12 3 L 2 3 z M 4 6 L 10 6 L 10 7 L 4 7 L 4 6 z M 4 8 L 10 8 L 10 9 L 4 9 L 4 8 z M 4 10 L 10 10 L 10 11 L 4 11 L 4 10 z "
     id="rect825" />
  <path
     inkscape:connector-curvature="0"
     style="opacity:1;vector-effect:none;fill:#dfdfdf;fill-opacity:1;stroke:none;stroke-width:3.25773025;stroke-linecap:butt;stroke-linejoin:miter;stroke-miterlimit:4;stroke-dasharray:none;stroke-dashoffset:0;stroke-opacity:1"
     d="M 4.0000506,0.99990082 V 1.9999008 h 7.9999994 0.960938 0.03906 V 12.999901 h 1 V 0.99990082 Z"
     id="path849" />
</svg>
